docs/icons/hs.svg

<svg xmlns="http://www.w3.org/2000/svg" xmlns:xlink="http://www.w3.org/1999/xlink" width="64" height="64" fill="none" xmlns:v="https://vecta.io/nano"><defs><path id="A" d="M0 0h52v52H0z"/><linearGradient id="B" x1="10.356564919110983%" y1="35.4033047948208%" x2="78.07191382830771%" y2="84.44716439349618%"><stop offset="0" stop-color="#00deec"/><stop offset="1" stop-color="#00ff90"/></linearGradient><linearGradient id="C" x1="18.798070009944503%" y1="38.63188025967122%" x2="117.5347573346579%" y2="106.2203854202282%"><stop offset="0" stop-color="#2c55ff"/><stop offset=".21" stop-color="#2e51ff"/><stop offset=".43" stop-color="#3444ff"/><stop offset=".65" stop-color="#3f30ff"/><stop offset=".88" stop-color="#4d13ff"/><stop offset="1" stop-color="#5700ff"/></linearGradient></defs><g transform="translate(6 6)"><mask id="D" fill="#fff"><use xlink:href="#A"/></mask><g mask="url(#D)" fill-rule="evenodd"><path fill="url(#B)" transform="matrix(1 0 0 1 1.300479 15.912974)" d="M6 25.62h24.08L16.5 2.1c-.38-.64-.91-1.17-1.55-1.54S13.58 0 12.84 0s-1.47.19-2.11.56A4.21 4.21 0 0 0 9.19 2.1L.8 16.62c-.52.92-.8 1.95-.8 3a6.04 6.04 0 0 0 .8 3c.53.92 1.29 1.67 2.2 2.2s1.95.81 3 .8z"/><path transform="matrix(1 0 0 1 8.6749 24.106794)" d="M10.79 1.53H6.21V0H4.59v1.53H0v1.62h1.88c.42 1.56 1.21 3 2.3 4.2-1.17.88-2.5 1.53-3.92 1.91l.44 1.56c1.7-.45 3.3-1.24 4.68-2.34 1.38 1.1 2.97 1.89 4.68 2.34l.44-1.56c-1.42-.38-2.75-1.03-3.92-1.91a10.04 10.04 0 0 0 2.31-4.2h1.9V1.53zM7.219 3.152h-3.65a8.41 8.41 0 0 0 1.83 3.1c.82-.9 1.44-1.95 1.82-3.1z" fill="#fff"/><path fill="url(#C)" transform="matrix(1 0 0 1 2.589047 9.1)" d="M25.62 2.12l-7.7 13.33-.2.34c-1.06 1.82-6.22 10.5-10.7 14.56-3.39 2.7-7.02-.17-7.02-.17a6.08 6.08 0 0 0 1.84 1.54 5.99 5.99 0 0 0 2.3.71H8.1h35.02c.74.01 1.47-.19 2.11-.56.64-.36 1.18-.9 1.55-1.54a4.18 4.18 0 0 0 .56-2.1c0-.74-.2-1.47-.57-2.11l-13.86-24c-.36-.65-.89-1.18-1.54-1.55a4.19 4.19 0 0 0-2.1-.57 4.2 4.2 0 0 0-2.11.57c-.64.37-1.18.9-1.54 1.55z"/><path transform="matrix(1 0 0 1 23.963956 20.579081)" d="M15.74 14.33L8.97 0h-2.2L0 14.33h2.67l1.65-3.49h7.09l1.65 3.49h2.68zm-5.338-5.633l-2.53-5.35-2.53 5.35h5.06z" fill="#fff"/></g></g></svg>

<svg xmlns="http://www.w3.org/2000/svg" xmlns:xlink="http://www.w3.org/1999/xlink" width="64" height="64" viewBox="0 0 64 64" fill="none"><defs><rect id="path_0" x="0" y="0" width="52" height="52" /><linearGradient id="linear_0" x1="10.356564919110983%" y1="35.4033047948208%" x2="78.07191382830771%" y2="84.44716439349618%" gradientUnits="objectBoundingBox"><stop offset="0" stop-color="#00DEEC" stop-opacity="1" /><stop offset="1" stop-color="#00FF90" stop-opacity="1" /></linearGradient><linearGradient id="linear_1" x1="18.798070009944503%" y1="38.63188025967122%" x2="117.5347573346579%" y2="106.2203854202282%" gradientUnits="objectBoundingBox"><stop offset="0" stop-color="#2C55FF" stop-opacity="1" /><stop offset="0.21" stop-color="#2E51FF" stop-opacity="1" /><stop offset="0.43" stop-color="#3444FF" stop-opacity="1" /><stop offset="0.65" stop-color="#3F30FF" stop-opacity="1" /><stop offset="0.88" stop-color="#4D13FF" stop-opacity="1" /><stop offset="1" stop-color="#5700FF" stop-opacity="1" /></linearGradient></defs><g opacity="1" transform="translate(0 0)  rotate(0 32 32)"> <g opacity="1" transform="translate(6 6)  rotate(0 26 26)"><mask id="bg-mask-0" fill="white"><use xlink:href="#path_0"></use></mask><g mask="url(#bg-mask-0)" ><path id="路径 1" fill-rule="evenodd" fill="url(#linear_0)" transform="translate(1.3004790893136062 15.91297436202233)  rotate(0 15.038119830343202 12.812434729687789)" opacity="1" d="M6,25.62L30.08,25.62L16.5,2.1C16.12,1.46 15.59,0.93 14.95,0.56C14.31,0.19 13.58,0 12.84,0C12.1,0 11.37,0.19 10.73,0.56C10.09,0.93 9.56,1.46 9.19,2.1L0.8,16.62C0.28,17.54 0,18.57 0,19.62C0,20.68 0.28,21.71 0.8,22.62C1.33,23.54 2.09,24.29 3,24.82C3.91,25.35 4.95,25.63 6,25.62Z " /><path id="分组 1" fill-rule="evenodd" style="fill:#FFFFFF" transform="translate(8.674900000000003 24.106793749999987)  rotate(0 5.397234375 5.410640625)" opacity="1" d="M10.79 1.53L6.21 1.53L6.21 0L4.59 0L4.59 1.53L0 1.53L0 3.15L1.88 3.15C2.3 4.71 3.09 6.15 4.18 7.35C3.01 8.23 1.68 8.88 0.26 9.26L0.7 10.82C2.4 10.37 4 9.58 5.38 8.48C6.76 9.58 8.35 10.37 10.06 10.82L10.5 9.26C9.08 8.88 7.75 8.23 6.58 7.35C7.68 6.16 8.47 4.71 8.89 3.15L10.79 3.15L10.79 1.53Z M7.21883 3.15242L3.56883 3.15242C3.94882 4.30242 4.56882 5.36242 5.39883 6.25242C6.21883 5.35242 6.83883 4.30242 7.21883 3.15242Z " /><path id="路径 4" fill-rule="evenodd" fill="url(#linear_1)" transform="translate(2.5890475000000004 9.099999999999998)  rotate(0 23.67055499658252 16.216820040571637)" opacity="1" d="M25.62,2.12L17.92,15.45L17.72,15.79C16.66,17.61 11.5,26.29 7.02,30.35C3.63,33.05 0,30.18 0,30.18C0.5,30.81 1.13,31.33 1.84,31.72C2.55,32.11 3.33,32.35 4.14,32.43L8.1,32.43L43.12,32.43C43.86,32.44 44.59,32.24 45.23,31.87C45.87,31.51 46.41,30.97 46.78,30.33C47.15,29.69 47.34,28.97 47.34,28.23C47.34,27.49 47.14,26.76 46.77,26.12L32.91,2.12C32.55,1.47 32.02,0.94 31.37,0.57C30.73,0.2 30.01,0 29.27,0C28.52,0 27.8,0.2 27.16,0.57C26.52,0.94 25.98,1.47 25.62,2.12Z " /><path id="分组 2" fill-rule="evenodd" style="fill:#FFFFFF" transform="translate(23.963956250000024 20.579081249999994)  rotate(0 7.869468749999999 7.16259375)" opacity="1" d="M15.74 14.33L8.97 0L6.77 0L0 14.33L2.67 14.33L4.32 10.84L11.41 10.84L13.06 14.33L15.74 14.33Z M10.4019 8.69726L7.87186 3.34726L5.34186 8.69726L10.4019 8.69726Z " /></g></g></g></svg>
